X:1
T:Title
%%score { ( 1 4 ) | ( 2 3 ) }
L:1/8
M:9/8
K:Eb
V:1 treble nm="Grand Piano"
V:4 treble 
V:2 bass 
V:3 bass 
V:1
 z3 z3[Q:1/4=100] [GB][GB][GB] | [GB]3 [EG]2 [GB] [Ac][GB][_G=A] | [GB]6 [Gc][Gd][Ge] | %3
 [Ad]3 [DFA]2 [DFA] [DAc][DAd][DAc] | [GB]6 [GB][GB][GB] | [GB]3 [EG]2 [GB] [Ge][GB][G=B] | %6
 c6 dec | B3 e2 [EG] .[DB]2 [A,DF] |[M:3/4] [G,E]6 |[M:3/8] e z z |[M:9/8] d6 z3 | B6 .B3 | A6 z3 | %13
 G6 z3 | A6 .=A3 | B6 .c3 | [EB]2 [Ec] [EG]3 [DF]3 |[M:3/4] E6 |] %18
V:2
 z3 z3 [E,E][E,E][E,E] | [E,E]3 [E,B,]2 [E,E] [E,E]2 [E,E] | [E,E]6 [E,E][E,B,][E,B,] | %3
 [F,B,]3 B,2 B, B,,B,,B,, | [E,E]6 [E,E][E,E][E,E] | [E,E]3 [E,B,]2 [E,E] [E,B,][E,E][E,E] | %6
 [A,EA]6 [=A,D_G][A,CG][A,EG] | [B,EG]3 [B,G]2[K:bass] [B,,B,] z GB,, |[M:3/4] E,6 | %9
[M:3/8] z[K:treble] d[K:bass]E, |[M:9/8] [F,B,]2 F, B,3 z[K:treble] d[K:bass]B,, | %11
 [E,E]2 [E,E] [E,E]3 [E,E]2 [E,B,E] | [F,B,D]2 [F,B,] [F,B,]3 z[K:treble] B[K:bass]B,, | %13
 [E,B,E]2 [E,B,] [E,B,]3 [_D,B,E]2 [D,B,] | [C,A,]2 [C,A,] [C,A,]3 [=B,,_G,]2 [B,,G,] | %15
 [B,,G,]2 [B,,G,] [B,,G,]3 [=A,,_G,]2 [A,,G,] | [B,,G,]2 [B,,A,] [B,,B,]3 [B,,A,]3 | %17
[M:3/4] [E,G,]6 |] %18
V:3
 x9 | x9 | x9 | x9 | x9 | x9 | x9 | z3 z3[K:bass] .[B,,F,]3 |[M:3/4] x6 | %9
[M:3/8] [E,B,]2[K:treble][K:bass] z |[M:9/8] z3 z3 .B,,3[K:treble][K:bass] | x9 | %12
 z3 z3 .[B,,F,]3[K:treble][K:bass] | x9 | x9 | x9 | x9 |[M:3/4] x6 |] %18
V:4
 x9 | x9 | x9 | x9 | x9 | x9 | x9 | x9 |[M:3/4] x6 |[M:3/8] G2 [EGc] | %10
[M:9/8] A2 [B,A] [FA]3 .[DAc]2 [DAc] | G2 G G3 G-[Gc]G | z2 D D3 .[DA]2 [B,DA] | z2 E E3 GF[EG] | %14
 E2 E E3 E-[E_A][E=A] | E2 E E3 E-[Ed][Ee] | x9 |[M:3/4] x6 |] %18

